public/new/component-91.svg

<svg fill="none" height="24" viewBox="0 0 24 24" width="24" xmlns="http://www.w3.org/2000/svg" xmlns:xlink="http://www.w3.org/1999/xlink"><clipPath id="a"><path d="m0 0h24v24h-24z"/></clipPath><g clip-path="url(#a)"><path d="m23.6409 14.903c-1.6028 6.4286-8.1147 10.341-14.54485 8.7379-6.42742-1.6027-10.3402-8.1143-8.736627-14.54241 1.602167-6.42934 8.114057-10.34197 14.542177-8.739287 6.4297 1.602687 10.3422 8.114967 8.7392 14.543897z" fill="#f7931a"/><path d="m17.2923 10.2906c.2389-1.59696-.977-2.45537-2.6397-3.02802l.5394-2.16319-1.317-.32812-.5251 2.10624c-.3462-.08634-.7017-.1677-1.0551-.24835l.5289-2.12014-1.3162-.32811-.5396 2.16249c-.2865-.06523-.5679-.12969-.841-.19761l.0016-.00681-1.81613-.45346-.35033 1.40643s.97707.22395.95648.23773c.53329.13309.62973.48607.61371.76586l-.61442 2.46436c.03672.0093.08436.0228.13692.044-.04394-.011-.09069-.0229-.13921-.0345l-.8612 3.4523c-.06518.162-.2306.4051-.60346.3128.0132.0191-.95717-.2389-.95717-.2389l-.65385 1.5074 1.7138.4271c.31882.08.63126.1636.93894.2423l-.54497 2.188 1.31543.3281.53968-2.1648c.35938.0976.70808.1875 1.04948.2724l-.5378 2.1545 1.317.3281.5449-2.1839c2.2457.425 3.9342.2537 4.645-1.7773.5727-1.6352-.0285-2.5784-1.21-3.1934.8605-.1985 1.5087-.7644 1.6815-1.9333l-.0004-.0003zm-3.0089 4.2188c-.407 1.6352-3.1604.7512-4.0532.5296l.7232-2.8987c.8927.2228 3.7554.6638 3.3301 2.3691zm.4073-4.2425c-.3713 1.4874-2.663.7317-3.4064.5464l.6556-2.62896c.7435.18529 3.1375.53112 2.7509 2.08256z" fill="#fff"/></g></svg>

<svg width="24" height="24" viewBox="0 0 24 24" fill="none" xmlns="http://www.w3.org/2000/svg">
<g clip-path="url(#clip0_206_722)">
<path d="M23.6409 14.903C22.0381 21.3316 15.5262 25.244 9.09605 23.6409C2.66863 22.0382 -1.24415 15.5266 0.359423 9.09849C1.96159 2.66915 8.47348 -1.24348 14.9016 0.359203C21.3313 1.96189 25.2438 8.47417 23.6408 14.9031L23.6409 14.903H23.6409Z" fill="#F7931A"/>
<path d="M17.2923 10.2906C17.5312 8.69364 16.3153 7.83523 14.6526 7.26258L15.192 5.09939L13.875 4.77127L13.3499 6.87751C13.0037 6.79117 12.6482 6.70981 12.2948 6.62916L12.8237 4.50902L11.5075 4.18091L10.9679 6.3434C10.6814 6.27817 10.4 6.21371 10.1269 6.14579L10.1285 6.13898L8.31237 5.68552L7.96204 7.09195C7.96204 7.09195 8.93911 7.3159 8.91852 7.32968C9.45181 7.46277 9.54825 7.81575 9.53223 8.09554L8.91781 10.5599C8.95453 10.5692 9.00217 10.5827 9.05473 10.6039C9.01079 10.5929 8.96404 10.581 8.91552 10.5694L8.05432 14.0217C7.98914 14.1837 7.82372 14.4268 7.45086 14.3345C7.46406 14.3536 6.49369 14.0956 6.49369 14.0956L5.83984 15.603L7.55364 16.0301C7.87246 16.1101 8.1849 16.1937 8.49258 16.2724L7.94761 18.4604L9.26304 18.7885L9.80272 16.6237C10.1621 16.7213 10.5108 16.8112 10.8522 16.8961L10.3144 19.0506L11.6314 19.3787L12.1763 17.1948C14.422 17.6198 16.1105 17.4485 16.8213 15.4175C17.394 13.7823 16.7928 12.8391 15.6113 12.2241C16.4718 12.0256 17.12 11.4597 17.2928 10.2908L17.2924 10.2905L17.2923 10.2906ZM14.2834 14.5094C13.8764 16.1446 11.123 15.2606 10.2302 15.039L10.9534 12.1403C11.8461 12.3631 14.7088 12.8041 14.2835 14.5094H14.2834ZM14.6907 10.2669C14.3194 11.7543 12.0277 10.9986 11.2843 10.8133L11.9399 8.18434C12.6834 8.36963 15.0774 8.71546 14.6908 10.2669H14.6907Z" fill="white"/>
</g>
<defs>
<clipPath id="clip0_206_722">
<rect width="24" height="24" fill="white"/>
</clipPath>
</defs>
</svg>
